icon-themes/sifr_svg/cmd/lc_objectbackone.svg

<svg viewBox="0 0 24 24" xmlns="http://www.w3.org/2000/svg"><g fill="#555753"><path d="m2 4v2h20v-2zm0 5v2h9v-2zm0 5v2h4.7636719c-.2893511-.638427-.4986223-1.310194-.6230469-2zm0 5v2h12v-.01758c-1.824409-.110041-3.564755-.805223-4.9628906-1.98242z"/><path d="m14.5 4a8.5 8.5 0 0 0 -8.5 8.5 8.5 8.5 0 0 0 8.5 8.5 8.5 8.5 0 0 0 8.5-8.5 8.5 8.5 0 0 0 -8.5-8.5zm-1.5 3h3v7h3l-4 4h-1l-4-4h3z" opacity=".35"/></g></svg>

<svg xmlns="http://www.w3.org/2000/svg" viewBox="0 0 24 24">
  <path
     style="fill:#555753"
     d="M 2,4 V 6 H 22 V 4 Z m 0,5 v 2 h 9 V 9 Z m 0,5 v 2 H 6.7636719 C 6.4743208,15.361573 6.2650496,14.689806 6.140625,14 Z m 0,5 v 2 h 12 v -0.01758 C 12.175591,20.872379 10.435245,20.177197 9.0371094,19 Z"
     />
  <path
     style="opacity:0.35;fill:#555753"
     d="M 14.5 4 A 8.5 8.5 0 0 0 6 12.5 A 8.5 8.5 0 0 0 14.5 21 A 8.5 8.5 0 0 0 23 12.5 A 8.5 8.5 0 0 0 14.5 4 z M 13 7 L 16 7 L 16 14 L 19 14 L 15 18 L 14 18 L 10 14 L 13 14 L 13 7 z "
     />
</svg>
